X:1
T:James Gibb editions
T:Joseph, du Sohn David  - Schütz
T:#
%%score [ 1 2 3 ] 4
L:1/8
Q:1/4=108
M:4/4
K:C
V:1 treble nm="Soprano I"
V:2 treble nm="Soprano II"
V:3 bass nm="Bass"
V:4 bass nm="Continuo"
V:1
"^Matthew 1:20b-21""^Joseph, du Sohn David, SWV 323""^Heinrich Schütz\n(1585-1672)" z8 | e8- | %2
w: |Jo\-|
 e4 A2 B2 | c8 | B8 | A8 | z8 | z8 | z4 a4- | a4 d2 e2 | f4 (f2 e2 | d2 ^c2 d4- | d4 ^c4) | d8 | %14
w: * seph, du|Sohn|Da-|vid,|||Jo\-|* seph, du|Sohn Da\- *|||vid,|
 e2 ef g2 e2 | fefd e2 g2- | g2 f4 (e/f/g/e/) | d4 c4 | z4 c2 cd | e2 c2 dcdB | c2 e4 d2- | %21
w: fürch- te dich nicht, Ma-|ri- am dein Ge- mahl zu|* dir zu * * *|neh- men,|fürch- te dich|nicht, Ma- ri- am dein Ge-|mahl zu dir|
 d2 c2 B4 | A8 | z8 | z2 e2 A2 B2 | c2 c2 d3 c | B8 | Bedc d2 d2 | c4 z4 | eagf g2 g2 | f8 | z8 | %32
w: * zu neh-|men,||denn das in|ihr ge- bo- ren|ist,|das ist von dem heil- gen|Geist,|das ist von dem heil- gen|Geist,||
 z4 a4- | a4 gfed | e2 ^f2 g4- | g4 f4 | z8 | z4 e4- | e4 dcBA | ^G2 G2 A4- | A4 ^G4 | z4 z2 e2 | %42
w: und|* sie wird ei- nen|Sohn ge- bä\-|* ren,||und|* sie wird ei- nen|Sohn ge- bä\-|* ren,|des|
 a4 g4 | f4 e4 | (d6 ef | g6 f2 | e6 a/g/^f/e/ | ^f4) g4 | ^f8 | e8 | z4 z2 e2 | f4 e4 | d4 c4 | %53
w: Na- men|sollst du|Je\- * *|||* sus|hei-|ssen,|des|Na- men|sollst du|
 B4 A4 | (^G4 A4- | A4 ^G4) | A4 a4 | g2 e2 f2 d2 | e2 f2 e4 | d4 z2 g2 | e4 ^f4 | g8 | ^f8 | %63
w: Je- sus|hei\- *||ssen, denn|er wird sein Volk|se- lig ma-|chen von|ih- ren|Sün-|den,|
 z4 z2 e2 | d2 B2 c2 A2 | B2 c4 B2 | c4 z2 f2 | d4 e4 | f8 | e4 z2 e2 | d2 e2 c2 d2 | B2 d2 B4- | %72
w: denn|er wird sein Volk|se- lig ma-|chen von|ih- ren|Sün-|den, denn|er wird dein Volk|se- lig ma\-|
 B4 B4 | z4 z2 d2 | B4 ^c4 | (d4 ^c2 B2) | !fermata!^c8 |] %77
w: * chen|von|ih- ren|Sün\- * *|den.|
V:2
 z8 | z8 | z8 | z8 | e8- | e4 A2 B2 | c8 | B8 | A8 | z4 a4- | a4 d2 e2 | f8 | e8 | d4 A2 AB | %14
w: ||||Jo\-|* seph, du|Sohn|Da-|vid,|Jo\-|* seph, du|Sohn|Da-|vid, fürch- te dich|
 c2 A2 BABG | A4 z2 e2 | d2 c2 (B2 c2- | c2 B2) c4 | z4 A2 AB | c2 A2 BABG | A2 c2 B2 A2 | %21
w: nicht, Ma- ri- am dein Ge-|mahl zu|dir zu neh\- *|* * men,|fürch- te dich|nicht, Ma- ri- am dein Ge-|mahl zu dir zu|
 (^G2 A4 G2) | A8 | z2 e2 A2 B2 | c6 B2 | A4 A4 | ^G4 Bedc | (dc c4) B2 | c4 cfed | (gf f4) e2 | %30
w: neh\- * *|men,|denn das in|ihr ge-|bo- ren|ist, das ist von dem|heil\- * * gen|Geist, das ist von dem|heil\- * * gen|
 f4 a4- | a4 gfed | ^c2 d2 e4 | A8 | z4 e4- | e4 dcBA | ^G2 G2 A4- | A4 G4 | z4 A2 A2 | B2 B2 c4 | %40
w: Geist, und|* sie wird ei- nen|Sohn ge- bä-|ren,|und|* sie wird ei- nen|Sohn ge- bä\-|* ren,|ei- nen|Sohn ge- bä-|
 B8 | z8 | z4 z2 G2 | d4 c4 | B4 A4 | (G6 AB | c4) e4 | (^d4 e4- | e4 ^d4) | e8 | z8 | z4 z2 e2 | %52
w: ren,||des|Na- men|sollst du|Je\- * *|* sus|hei\- *||ssen,||des|
 f4 e4 | d4 c4 | B4 A4 | B8 | A4 A4 | B2 ^c2 d2 B2 | ^c2 d4 c2 | d4 z2 e2 | ^c4 d4 | e8 | %62
w: Na- men|sollst du|Je- sus|hei-|ssen, denn|er wird sein Volk|se- lig ma-|chen von|ih- ren|Sün-|
 d4 z2 d2 | c2 A2 (B3 A/G/ | A2 G2 (ABcA | d2) e2 d4 | c2 c2 A4 | B4 c4- | c4 B4) | c4 c4 | %70
w: den, denn|er wird sein * *|* Volk se\- * * *|* lig ma-|chen von ih-|ren Sün\-||den, denn|
 B2 c2 A2 A2 | ^G2 A2 G4- | G4 ^G4 | z2 A2 ^F4 | ^G4 (A4- | A4 ^G4) | !fermata!A8 |] %77
w: er wird dein Volk|se- lig ma\-|* chen|von ih-|ren Sün\-||den.|
V:3
 A,8- | A,4 A,,2 B,,2 | ^C,8 | E,8- | E,8 | A,,8 | z8 | z8 | z8 | z8 | D8 | D,2 E,2 F,4 | A,8 | %13
w: Jo\-|* seph, du|Sohn|Da\-||vid,|||||Jo-|seph, du Sohn|Da-|
 D,8 | A,2 A,A, G,2 G,2 | F,G,A,B, C3 C | B,2 A,2 G,4- | G,4 C,4 | C2 CB, A,2 A,2 | A,B,CA, G,4 | %20
w: vid,|fürch- te dich nicht, Ma-|ri- am dein Ge- mahl zu|dir zu neh\-|* men,|fürch- te dich nicht, Ma-|ri- am dein Ge- mahl|
 z2 C,2 D,2 F,2 | E,8 | A,,8 | z2 A,2 A,2 ^G,2 | A,6 G,2 | (F,3 E, D,2) A,,2 | E,8 | %27
w: zu dir zu|neh-|men,|denn das in|ihr ge-|bo\- * * ren|ist,|
 G,CB,A, G,2 G,2 | C,4 A,DCB, | C6 C2 | F,8 | z4 A,4- | A,4 G,F,E,D, | ^C,2 C,2 D,4- | D,4 ^C,4 | %35
w: das ist von dem heil- gen|Geist, das ist von dem|heil- gen|Geist,|und|* sie wird ei- nen|Sohn ge- bä\-|* ren,|
 z8 | z4 F,4- | F,4 E,D,C,B,, | A,,2 A,,2 F,4 | E,8 | z4 E,4 | A,4 G,4 | F,4 E,4 | (D,6 E,F, | %44
w: |und|* sie wird ei- nen|Sohn ge- bä-|ren,|des|Na- men|sollst du|Je\- * *|
 G,6 F,2 | E,6 F,G, | A,4) C4 | B,8- | B,8 | E,4 z2 E,2 | F,4 E,4 | D,4 C,4 | D,8 | D,8 | E,8- | %55
w: ||* sus|hei\-||ssen, des|Na- men|sollst du|Je-|sus|hei\-|
 E,8 | A,,8 | z8 | z4 z2 A,2 | ^F,4 G,4 | A,8- | A,8 | D,4 D,4 | E,2 ^F,2 G,2 E,2 | ^F,2 G,4 F,2 | %65
w: |ssen,||von|ih- ren|Sün\-||den, denn|er wird sein Volk|se- lig ma-|
 G,4 z2 G,2 | E,4 F,4 | G,8- | G,8 | C,4 C,4 | G,2 E,2 F,2 D,2 | E,2 F,2 E,4 | E,4 z2 E,2 | %73
w: chen von|ih- ren|Sün\-||den, denn|er wird dein Volk|se- lig ma-|chen von|
 ^C,4 D,4 | E,8- | E,8 | !fermata!A,,8 |] %77
w: ih- ren|Sün\-||den.|
V:4
 A,8- | A,4 A,,2 B,,2 | ^C,8 | E,8- | x4 x4 | A,,4 A,2 G,2 | F,2 E,2 A,4- | A,4 ^G,4 | A,8 | D8 | %10
w: ||6|6|||* 6 *|2 *|||
w: ||||||||||
 D8 | D,2 E,2 F,4 | x4- x4 | D,8 | A,4 G,4 | F,4 C,2 C2 | B,2 A,2 (x2- x2 | x2) x2 C,4 | %18
w: |* 6 6|4||||6 6 3||
w: ||||||||
 C2 CB, A,4 | A,4 G,4 | F,2 C,2 D,2 F,2 | x2- x4 x2 | A,,8 | A,4 A,2 ^G,2 | A,6 G,2 | %25
w: ||* * * 6|||* * 6||
w: |||||||
 F,3 E, D,2 A,,2 | E,8 | G,CB,A, x2- x2 | C,4 A,DCB, | x2- x2 x2 C2 | F,8 | A,8- | A,4 G,F,E,D, | %33
w: ||* * * * 4||3 3||||
w: ||||||||
 ^C,4 D,4- | D,4 ^C,4 | x4- x4 | E,4 F,4- | F,4 E,D,C,B,, | A,,2 A,,2 F,4 | (x4- x4 | E,4 E,4 | %41
w: 6 *|4 6|4|||* * 6|5||
w: |2 *||||||4 *|
 A,4 G,4 | F,4 E,4 | D,6 E,F, | G,6 F,2 | E,6 F,G, | A,4 C4 | (x4- x4 | x4) x4 | E,4 E,4 | %50
w: * 6|||||* 6||||
w: |||||||||
 F,4 E,4 | D,4 C,4 | x4- x4 | x4- x4 | x4- x4 | x4) x4 | A,,4 A,4 | x2- x2 x2- x2 | x2- x2 x2 A,2 | %59
w: ||8|8||||5 5||
w: |||6||||||
 ^F,4 G,4 | (x4- x4 | x4) x4 | D,4 D,4 | E,2 ^F,2 G,2 E,2 | ^F,2 G,4 F,2 | G,4 G,4 | E,4 F,4 | %67
w: 6 6||||6 * * *|||6 6|
w: ||||||||
 (x4- x4 | x4) x4 | C,4 C,4 | G,2 E,2 F,2 D,2 | E,2 F,2 E,4 | E,6 E,2 | ^C,4 D,4 | (x4- x4 | %75
w: 3||||* 6 *||6 *||
w: ||||||||
 x4) x4 | A,,8 |] %77
w: ||
w: ||

